images/icons/reddit.svg

<svg fill="none" height="24" viewBox="0 0 24 24" width="24" xmlns="http://www.w3.org/2000/svg" xmlns:xlink="http://www.w3.org/1999/xlink"><linearGradient id="a"><stop offset="0" stop-color="#feffff"/><stop offset=".4" stop-color="#feffff"/><stop offset=".51" stop-color="#f9fcfc"/><stop offset=".62" stop-color="#edf3f5"/><stop offset=".7" stop-color="#dee9ec"/><stop offset=".72" stop-color="#d8e4e8"/><stop offset=".76" stop-color="#ccd8df"/><stop offset=".8" stop-color="#c8d5dd"/><stop offset=".83" stop-color="#ccd6de"/><stop offset=".85" stop-color="#d8dbe2"/><stop offset=".88" stop-color="#ede3e9"/><stop offset=".9" stop-color="#ffebef"/></linearGradient><radialGradient id="b" cx="0" cy="0" gradientTransform="matrix(7.01628 0 0 6.12058 20.3529 10.0842)" gradientUnits="userSpaceOnUse" r="1" xlink:href="#a"/><radialGradient id="c" cx="0" cy="0" gradientTransform="matrix(.0275256 0 0 .0240117 3.50117 26.208)" gradientUnits="userSpaceOnUse" r="1" xlink:href="#a"/><radialGradient id="d" cx="0" cy="0" gradientTransform="matrix(21.1639 0 0 14.8598 12.0759 9.10245)" gradientUnits="userSpaceOnUse" r="1" xlink:href="#a"/><linearGradient id="e"><stop offset="0" stop-color="#f60"/><stop offset=".5" stop-color="#ff4500"/><stop offset=".7" stop-color="#fc4301"/><stop offset=".82" stop-color="#f43f07"/><stop offset=".92" stop-color="#e53812"/><stop offset="1" stop-color="#d4301f"/></linearGradient><radialGradient id="f" cx="0" cy="0" gradientTransform="matrix(-1.76825 0 -0 -2.59594 16.5661 15.1693)" gradientUnits="userSpaceOnUse" r="1" xlink:href="#e"/><radialGradient id="g" cx="0" cy="0" gradientTransform="matrix(1.76825 0 0 2.59594 7.37184 15.1693)" gradientUnits="userSpaceOnUse" r="1" xlink:href="#e"/><radialGradient id="h" cx="0" cy="0" gradientTransform="matrix(6.23511 0 0 4.11251 11.8436 20.3155)" gradientUnits="userSpaceOnUse" r="1"><stop offset="0" stop-color="#172e35"/><stop offset=".29" stop-color="#0e1c21"/><stop offset=".73" stop-color="#030708"/><stop offset="1"/></radialGradient><radialGradient id="i" cx="17.3427" cy="1.4808" gradientUnits="userSpaceOnUse" r="5.47319" xlink:href="#a"/><radialGradient id="j" cx="15.0614" cy="7.4474" gradientUnits="userSpaceOnUse" r="4.48613"><stop offset=".48" stop-color="#7a9299"/><stop offset=".67" stop-color="#172e35"/><stop offset=".75"/><stop offset=".82" stop-color="#172e35"/></radialGradient><path d="m20.4989 15.4701c1.9336 0 3.5011-1.5674 3.5011-3.501s-1.5675-3.50102-3.5011-3.50102c-1.9335 0-3.501 1.56742-3.501 3.50102s1.5675 3.501 3.501 3.501z" fill="url(#b)"/><path d="m3.50102 15.4701c1.93357 0 3.50103-1.5674 3.50103-3.501s-1.56746-3.50102-3.50103-3.50102c-1.93356 0-3.50102 1.56742-3.50102 3.50102s1.56746 3.501 3.50102 3.501z" fill="url(#c)"/><path d="m12.0082 22.4734c5.5199 0 9.9947-3.3563 9.9947-7.4964s-4.4748-7.49633-9.9947-7.49633c-5.51998 0-9.99477 3.35623-9.99477 7.49633s4.47479 7.4964 9.99477 7.4964z" fill="url(#d)"/><path d="m9.05304 14.2485c-.05857 1.2697-.90191 1.7311-1.88229 1.7311s-1.73001-.65-1.67145-1.9197c.05857-1.2697.90191-2.1107 1.88229-2.1107s1.73001 1.0296 1.67145 2.2993z" fill="#842123"/><path d="m18.5172 14.0587c.0585 1.2697-.6899 1.9198-1.6715 1.9198-.9815 0-1.8249-.4603-1.8823-1.7312-.0585-1.2697.6899-2.2993 1.6715-2.2993.9815 0 1.8249.8398 1.8823 2.1107z" fill="#842123"/><path d="m14.9634 14.3586c.055 1.1888.8433 1.6199 1.7616 1.6199s1.6187-.6454 1.5637-1.8343c-.0551-1.1889-.8433-1.9666-1.7616-1.9666-.9184 0-1.6188.9921-1.5637 2.181z" fill="url(#f)"/><path d="m9.05419 14.3586c-.05505 1.1888-.84333 1.6199-1.76164 1.6199-.9183 0-1.61874-.6454-1.56368-1.8343.05505-1.1889.84333-1.9666 1.76164-1.9666.9183 0 1.61874.9921 1.56368 2.181z" fill="url(#g)"/><path d="m12.0082 16.8265c-1.2392 0-2.42693.0597-3.52562.1687-.1874.0187-.30688.2096-.23426.3806.61494 1.4419 2.06618 2.4551 3.75988 2.4551s3.1438-1.0132 3.7599-2.4551c.0726-.171-.0457-.3619-.2343-.3806-1.0987-.109-2.2864-.1687-3.5256-.1687z" fill="#bbcfda"/><path d="m12.0082 17.1018c-1.2357 0-2.4199.0609-3.51507.1721-.1874.0188-.30571.2132-.23308.3866.61376 1.4653 2.06035 2.4937 3.74695 2.4937 1.6867 0 3.1345-1.0296 3.7482-2.4937.0726-.1734-.0457-.3678-.2331-.3866-1.0951-.1112-2.2793-.1721-3.5151-.1721z" fill="#fff"/><path d="m12.0082 16.9589c-1.2158 0-2.38127.0597-3.46004.1686-.1839.0188-.30103.2097-.22958.3807.60322 1.4419 2.02752 2.455 3.68962 2.455s3.0852-1.0131 3.6896-2.455c.0714-.171-.0457-.3619-.2296-.3807-1.0776-.1089-2.243-.1686-3.46-.1686z" fill="url(#h)"/><path d="m17.4829 6.46164c1.3701 0 2.4808-1.1107 2.4808-2.48082s-1.1107-2.48082-2.4808-2.48082-2.4808 1.1107-2.4808 2.48082 1.1107 2.48082 2.4808 2.48082z" fill="url(#i)"/><path d="m11.9731 7.79692c-.2976 0-.5377-.12415-.5377-.31625 0-2.22313 1.8085-4.03045 4.0305-4.03045.2975 0 .5376.24129.5376.53763s-.2413.53762-.5376.53762c-1.6293 0-2.9552 1.32592-2.9552 2.9552 0 .1921-.2413.31625-.5376.31625z" fill="url(#j)"/><path d="m8.40062 14.9466c0 .4603-.48961.6664-1.09283.6664s-1.09282-.2061-1.09282-.6664c0-.4604.4896-.8328 1.09282-.8328s1.09283.3724 1.09283.8328z" fill="#ff6101"/><path d="m17.8026 14.9466c0 .4603-.4896.6664-1.0928.6664-.6033 0-1.0929-.2061-1.0929-.6664 0-.4604.4896-.8328 1.0929-.8328.6032 0 1.0928.3724 1.0928.8328z" fill="#ff6101"/><g fill="#ffc49c"><path d="m8.06209 13.6979c.21477 0 .38887-.1898.38887-.424 0-.2341-.1741-.424-.38887-.424s-.38887.1899-.38887.424c0 .2342.1741.424.38887.424z"/><path d="m17.3049 13.6979c.2148 0 .3889-.1898.3889-.424 0-.2341-.1741-.424-.3889-.424s-.3889.1899-.3889.424c0 .2342.1741.424.3889.424z"/></g></svg>

<svg width="24" height="24" viewBox="0 0 24 24" fill="none" xmlns="http://www.w3.org/2000/svg">
<path d="M20.4989 15.4701C22.4325 15.4701 24 13.9027 24 11.9691C24 10.0355 22.4325 8.46808 20.4989 8.46808C18.5654 8.46808 16.9979 10.0355 16.9979 11.9691C16.9979 13.9027 18.5654 15.4701 20.4989 15.4701Z" fill="url(#paint0_radial_4_250)"/>
<path d="M3.50102 15.4701C5.43459 15.4701 7.00205 13.9027 7.00205 11.9691C7.00205 10.0355 5.43459 8.46808 3.50102 8.46808C1.56746 8.46808 0 10.0355 0 11.9691C0 13.9027 1.56746 15.4701 3.50102 15.4701Z" fill="url(#paint1_radial_4_250)"/>
<path d="M12.0082 22.4734C17.5281 22.4734 22.0029 19.1171 22.0029 14.977C22.0029 10.8369 17.5281 7.48067 12.0082 7.48067C6.48822 7.48067 2.01343 10.8369 2.01343 14.977C2.01343 19.1171 6.48822 22.4734 12.0082 22.4734Z" fill="url(#paint2_radial_4_250)"/>
<path d="M9.05304 14.2485C8.99447 15.5182 8.15113 15.9796 7.17075 15.9796C6.19037 15.9796 5.44074 15.3296 5.4993 14.0599C5.55787 12.7902 6.40121 11.9492 7.38159 11.9492C8.36197 11.9492 9.1116 12.9788 9.05304 14.2485Z" fill="#842123"/>
<path d="M18.5172 14.0587C18.5757 15.3284 17.8273 15.9785 16.8457 15.9785C15.8642 15.9785 15.0208 15.5182 14.9634 14.2473C14.9049 12.9776 15.6533 11.948 16.6349 11.948C17.6164 11.948 18.4598 12.7878 18.5172 14.0587Z" fill="#842123"/>
<path d="M14.9634 14.3586C15.0184 15.5474 15.8067 15.9785 16.725 15.9785C17.6433 15.9785 18.3437 15.3331 18.2887 14.1442C18.2336 12.9553 17.4454 12.1776 16.5271 12.1776C15.6087 12.1776 14.9083 13.1697 14.9634 14.3586Z" fill="url(#paint3_radial_4_250)"/>
<path d="M9.05419 14.3586C8.99914 15.5474 8.21086 15.9785 7.29255 15.9785C6.37425 15.9785 5.67381 15.3331 5.72887 14.1442C5.78392 12.9553 6.5722 12.1776 7.49051 12.1776C8.40881 12.1776 9.10925 13.1697 9.05419 14.3586Z" fill="url(#paint4_radial_4_250)"/>
<path d="M12.0082 16.8265C10.769 16.8265 9.58127 16.8862 8.48258 16.9952C8.29518 17.0139 8.1757 17.2048 8.24832 17.3758C8.86326 18.8177 10.3145 19.8309 12.0082 19.8309C13.7019 19.8309 15.152 18.8177 15.7681 17.3758C15.8407 17.2048 15.7224 17.0139 15.5338 16.9952C14.4351 16.8862 13.2474 16.8265 12.0082 16.8265Z" fill="#BBCFDA"/>
<path d="M12.0082 17.1018C10.7725 17.1018 9.5883 17.1627 8.49313 17.2739C8.30573 17.2927 8.18742 17.4871 8.26005 17.6605C8.87381 19.1258 10.3204 20.1542 12.007 20.1542C13.6937 20.1542 15.1415 19.1246 15.7552 17.6605C15.8278 17.4871 15.7095 17.2927 15.5221 17.2739C14.427 17.1627 13.2428 17.1018 12.007 17.1018H12.0082Z" fill="white"/>
<path d="M12.0082 16.9589C10.7924 16.9589 9.62693 17.0186 8.54816 17.1275C8.36426 17.1463 8.24713 17.3372 8.31858 17.5082C8.9218 18.9501 10.3461 19.9632 12.0082 19.9632C13.6703 19.9632 15.0934 18.9501 15.6978 17.5082C15.7692 17.3372 15.6521 17.1463 15.4682 17.1275C14.3906 17.0186 13.2252 16.9589 12.0082 16.9589Z" fill="url(#paint5_radial_4_250)"/>
<path d="M17.4829 6.46164C18.853 6.46164 19.9637 5.35094 19.9637 3.98082C19.9637 2.6107 18.853 1.5 17.4829 1.5C16.1128 1.5 15.0021 2.6107 15.0021 3.98082C15.0021 5.35094 16.1128 6.46164 17.4829 6.46164Z" fill="url(#paint6_radial_4_250)"/>
<path d="M11.9731 7.79692C11.6755 7.79692 11.4354 7.67277 11.4354 7.48067C11.4354 5.25754 13.2439 3.45022 15.4659 3.45022C15.7634 3.45022 16.0035 3.69151 16.0035 3.98785C16.0035 4.28419 15.7622 4.52547 15.4659 4.52547C13.8366 4.52547 12.5107 5.85139 12.5107 7.48067C12.5107 7.67277 12.2694 7.79692 11.9731 7.79692Z" fill="url(#paint7_radial_4_250)"/>
<path d="M8.40062 14.9466C8.40062 15.4069 7.91101 15.613 7.30779 15.613C6.70457 15.613 6.21497 15.4069 6.21497 14.9466C6.21497 14.4862 6.70457 14.1138 7.30779 14.1138C7.91101 14.1138 8.40062 14.4862 8.40062 14.9466Z" fill="#FF6101"/>
<path d="M17.8026 14.9466C17.8026 15.4069 17.313 15.613 16.7098 15.613C16.1065 15.613 15.6169 15.4069 15.6169 14.9466C15.6169 14.4862 16.1065 14.1138 16.7098 14.1138C17.313 14.1138 17.8026 14.4862 17.8026 14.9466Z" fill="#FF6101"/>
<path d="M8.06209 13.6979C8.27686 13.6979 8.45096 13.5081 8.45096 13.2739C8.45096 13.0398 8.27686 12.8499 8.06209 12.8499C7.84732 12.8499 7.67322 13.0398 7.67322 13.2739C7.67322 13.5081 7.84732 13.6979 8.06209 13.6979Z" fill="#FFC49C"/>
<path d="M17.3049 13.6979C17.5197 13.6979 17.6938 13.5081 17.6938 13.2739C17.6938 13.0398 17.5197 12.8499 17.3049 12.8499C17.0901 12.8499 16.916 13.0398 16.916 13.2739C16.916 13.5081 17.0901 13.6979 17.3049 13.6979Z" fill="#FFC49C"/>
<defs>
<radialGradient id="paint0_radial_4_250" cx="0" cy="0" r="1" gradientUnits="userSpaceOnUse" gradientTransform="translate(20.3529 10.0842) scale(7.01628 6.12058)">
<stop stop-color="#FEFFFF"/>
<stop offset="0.4" stop-color="#FEFFFF"/>
<stop offset="0.51" stop-color="#F9FCFC"/>
<stop offset="0.62" stop-color="#EDF3F5"/>
<stop offset="0.7" stop-color="#DEE9EC"/>
<stop offset="0.72" stop-color="#D8E4E8"/>
<stop offset="0.76" stop-color="#CCD8DF"/>
<stop offset="0.8" stop-color="#C8D5DD"/>
<stop offset="0.83" stop-color="#CCD6DE"/>
<stop offset="0.85" stop-color="#D8DBE2"/>
<stop offset="0.88" stop-color="#EDE3E9"/>
<stop offset="0.9" stop-color="#FFEBEF"/>
</radialGradient>
<radialGradient id="paint1_radial_4_250" cx="0" cy="0" r="1" gradientUnits="userSpaceOnUse" gradientTransform="translate(3.50117 26.208) scale(0.0275256 0.0240117)">
<stop stop-color="#FEFFFF"/>
<stop offset="0.4" stop-color="#FEFFFF"/>
<stop offset="0.51" stop-color="#F9FCFC"/>
<stop offset="0.62" stop-color="#EDF3F5"/>
<stop offset="0.7" stop-color="#DEE9EC"/>
<stop offset="0.72" stop-color="#D8E4E8"/>
<stop offset="0.76" stop-color="#CCD8DF"/>
<stop offset="0.8" stop-color="#C8D5DD"/>
<stop offset="0.83" stop-color="#CCD6DE"/>
<stop offset="0.85" stop-color="#D8DBE2"/>
<stop offset="0.88" stop-color="#EDE3E9"/>
<stop offset="0.9" stop-color="#FFEBEF"/>
</radialGradient>
<radialGradient id="paint2_radial_4_250" cx="0" cy="0" r="1" gradientUnits="userSpaceOnUse" gradientTransform="translate(12.0759 9.10245) scale(21.1639 14.8598)">
<stop stop-color="#FEFFFF"/>
<stop offset="0.4" stop-color="#FEFFFF"/>
<stop offset="0.51" stop-color="#F9FCFC"/>
<stop offset="0.62" stop-color="#EDF3F5"/>
<stop offset="0.7" stop-color="#DEE9EC"/>
<stop offset="0.72" stop-color="#D8E4E8"/>
<stop offset="0.76" stop-color="#CCD8DF"/>
<stop offset="0.8" stop-color="#C8D5DD"/>
<stop offset="0.83" stop-color="#CCD6DE"/>
<stop offset="0.85" stop-color="#D8DBE2"/>
<stop offset="0.88" stop-color="#EDE3E9"/>
<stop offset="0.9" stop-color="#FFEBEF"/>
</radialGradient>
<radialGradient id="paint3_radial_4_250" cx="0" cy="0" r="1" gradientUnits="userSpaceOnUse" gradientTransform="translate(16.5661 15.1693) rotate(180) scale(1.76825 2.59594)">
<stop stop-color="#FF6600"/>
<stop offset="0.5" stop-color="#FF4500"/>
<stop offset="0.7" stop-color="#FC4301"/>
<stop offset="0.82" stop-color="#F43F07"/>
<stop offset="0.92" stop-color="#E53812"/>
<stop offset="1" stop-color="#D4301F"/>
</radialGradient>
<radialGradient id="paint4_radial_4_250" cx="0" cy="0" r="1" gradientUnits="userSpaceOnUse" gradientTransform="translate(7.37184 15.1693) scale(1.76825 2.59594)">
<stop stop-color="#FF6600"/>
<stop offset="0.5" stop-color="#FF4500"/>
<stop offset="0.7" stop-color="#FC4301"/>
<stop offset="0.82" stop-color="#F43F07"/>
<stop offset="0.92" stop-color="#E53812"/>
<stop offset="1" stop-color="#D4301F"/>
</radialGradient>
<radialGradient id="paint5_radial_4_250" cx="0" cy="0" r="1" gradientUnits="userSpaceOnUse" gradientTransform="translate(11.8436 20.3155) scale(6.23511 4.11251)">
<stop stop-color="#172E35"/>
<stop offset="0.29" stop-color="#0E1C21"/>
<stop offset="0.73" stop-color="#030708"/>
<stop offset="1"/>
</radialGradient>
<radialGradient id="paint6_radial_4_250" cx="0" cy="0" r="1" gradientUnits="userSpaceOnUse" gradientTransform="translate(17.3427 1.4808) scale(5.47319 5.47319)">
<stop stop-color="#FEFFFF"/>
<stop offset="0.4" stop-color="#FEFFFF"/>
<stop offset="0.51" stop-color="#F9FCFC"/>
<stop offset="0.62" stop-color="#EDF3F5"/>
<stop offset="0.7" stop-color="#DEE9EC"/>
<stop offset="0.72" stop-color="#D8E4E8"/>
<stop offset="0.76" stop-color="#CCD8DF"/>
<stop offset="0.8" stop-color="#C8D5DD"/>
<stop offset="0.83" stop-color="#CCD6DE"/>
<stop offset="0.85" stop-color="#D8DBE2"/>
<stop offset="0.88" stop-color="#EDE3E9"/>
<stop offset="0.9" stop-color="#FFEBEF"/>
</radialGradient>
<radialGradient id="paint7_radial_4_250" cx="0" cy="0" r="1" gradientUnits="userSpaceOnUse" gradientTransform="translate(15.0614 7.4474) scale(4.48613)">
<stop offset="0.48" stop-color="#7A9299"/>
<stop offset="0.67" stop-color="#172E35"/>
<stop offset="0.75"/>
<stop offset="0.82" stop-color="#172E35"/>
</radialGradient>
</defs>
</svg>
